X: 1
T: Bonnie's Waltz
C: Vince O'Donnell, 2012
R: waltz
Z: 2012 John Chambers <jc:trillian.mit.edu>
S: printed MS from Paul Milde 2012-6-6
M: 3/4
L: 1/8
K: G
(Bdg) |\
"Gmaj7"f3 (Bdf) | "G6"e3 (Bdf) | "Gmaj7"(ed B4-) | "G6"B (GBdgf) |\
e3 (dBd) | "Gdim7"g3 (fed) | "Am7"(c2 A4-) | "Am6"A3 (cea) |
y8 |\
"D7"f3 (Acf) | "D7sus4"e3 (Ace) | "Am7"(cB A4) | "D"(FAcd fa) |\
(fgef)(de) | "D7"(cdcB) (A^A) | "Gdim7"(^A3 "Gmaj7"B3-) | B3 |]
Bdg |\
"Gmaj7"f3 (Bdf) | "G6"e3 (Bdf) | "Gmaj7"(ed B3-) | "G6"B (GBdef) |\
"G"g3 (fga) | "G7"b3 (bag) | "C6"(a3 e4-) | e3 (eab) |
y6 |\
"C6"c'3 (bab) | "Cdim7"c'3 (c'ba) | "G/d"b3 (dga) | "E7"b6 |\
"Am"a3 (ceg) | "D7"f3 (dfa) | "G"g6- | g3 |]
